!!!!SEGMENT: pl-wnifc--13846--069_anonim--piesni-polskie-i-ruskie-ludu-galicyjskiego-69-na-hori-chatyna-tam-kuma-moja.krn
!!!cenid: 18xx:3291
!!!COM: Anonim
!!!COM-rismID: pe30004985
!!!CDT:
!!!CNT:
!!!GTL: Pieśni polskie i ruskie ludu galicyjskiego
!!!OTL: 69. Na hori chatyna tam kuma moja
!!!PDT: 1833
!!!AGN:
!!!SMS-siglum: PL-Wnifc
!!!SMS-shelfmark: 13846
!!!SMS-shelfwork: 069 G
!!!NIFC-rismSourceID: 1001037231
!!!NIFC-islandoraID:
!!!URL-pdf-islandora:
!!!URL-scan:
!!!ONB-nifc:
!!!AIN: 1 piano 1 vox
!!!key: a
!!!OMD: Andante.
**kern	**kern	**kern	**text
*part2	*part2	*part1	*part1
*staff3	*staff2	*staff1	*staff1
*I"FORTEPIAN.	*I"FORTEPIAN.	*I"GŁOS.	*
*Ipiano	*Ipiano	*Ivox	*
*ICklav	*ICklav	*ICvox	*
*IGacmp	*IGacmp	*IGsolo	*
*clefF4	*clefG2	*clefG2	*
*k[]	*k[]	*k[]	*
*a:	*a:	*a:	*
*M3/8	*M3/8	*M3/8	*
=1-	=1-	=1-	=1-
!	!	!LO:TX:a:t=E.3.	!
4AA/ 4AAA/	16a/LL 16e/ 16c/	16a\	Na
.	16b/JJ 16g#X/ 16e/	16b\	ho-
.	8cc\L 8a\ 8e\	8cc\	-ri
8AA/ 8AAA/	8dd\J 8a\ 8f\	8dd\	cha-
=2	=2	=2	=2
8AA/ 8AAA/	(16.ee\LL 16.cc\ 16.a\ 16.e\	(16.ee\LL	-ty-
.	32aa\JJk 32ee\ 32cc\)	32aa\JJk)	.
4AA/ 4AAA/;	4aa\ 4ee\ 4cc\;	4aa\;	na
=3	=3	=3	=3
8E/ 8EE/	16cc\LL 16a\	16cc\	tam-
.	16cc\JJ 16a\	16cc\	-ku-
(8E\L	8b\L 8g#X\	8b\	-ma
8d\J 8E\)	8ee\J 8b\ 8g#\	8ee\	mo-
=4	=4	=4	=4
*	*^	*	*
8c\L 8A\	4a/	4e\	4a/	-ja
8E\	.	.	.	.
8C/J	8r	8ryy	8r	.
!!LO:LB:g=original
=5	=5	=5	=5	=5
4AA/ 4AAA/	16a/LL 16e/ 16c/	8ryy	16a\	a
.	16b/JJ 16g#X/ 16e/	.	16b\	w ku-
.	8cc/L	16a\LL	8cc\	-my
.	.	16e\JJ	.	.
8AA/ 8AAA/	8dd/J	16a\LL	8dd\	di-
.	.	16f\JJ	.	.
*	*v	*v	*	*
=6	=6	=6	=6
8AA/ 8AAA/	16.ee\LL 16.cc\ 16.a\ 16.e\	(16.ee\LL	-wczy-
.	32aa\JJk 32ee\ 32cc\	32aa\JJk)	.
4AA/ 4AAA/;	4aa\ 4ee\ 4cc\;	4aa\;	na,
=7	=7	=7	=7
8E/ 8EE/	16cc\LL 16a\	16cc\	to
.	16cc\JJ 16a\	16cc\	du-
(8E\L	8b\L 8g#X\	8b\	-sza
8d\J 8E\)	8ee\J 8b\ 8g#\	8ee\	mo-
=8	=8	=8	=8
*	*^	*	*
4c\ 4A\	4a/	4e\	4a/	-ja,
8r	8r	8ryy	8r	.
*	*v	*v	*	*
!!LO:LB:g=original
=9	=9	=9	=9
4E/ 4EE/	8b\ 8g#X\	8b\	na-
.	16ee\LL 16cc\	16ee\	-żnu
.	16dd\ 16b\	16dd\	ja
8E/ 8EE/	16cc\ 16a\	16cc\	po-
.	16b\JJ 16g#\	16b\	-pu
=10	=10	=10	=10
8E/ 8EE/	8cc\ 8a\	8cc\	psze-
4E/ 4EE/	16ee\LL 16cc\	16ee\	-ny-
.	16dd\ 16b\	16dd\	-ci
.	16cc\ 16a\	16cc\	ko-
.	16b\JJ 16g#X\	16b\	-pu
=11	=11	=11	=11
4.A/ 4.AA/	16a\LL	16a\	szczob
.	16b\JJ 16g#X\	16b\	me-
.	8cc\L 8a\	8cc\	-ne
.	8dd\J 8b\	8dd\	zwin
!!LO:PB:g=original
=12	=12	=12	=12
.	.	(<8qee/	czaw
8A/L 8AA/	(8ee\L 8cc\	4aa\;)	.
8AA/J 8AAA/;	8aa\J 8cc\;)	.	.
8r	8r	8r	.
=13	=13	=13	=13
4E/ 4EE/	16cc\LL 16a\	16cc\	z ku-
.	16cc\JJ 16a\	16cc\	-my-
.	8b\L 8g#X\	8b\	-nym
8d\ 8E\	8ee\J 8b\ 8g#\	8ee\	diw-
=14	=14	=14	=14
*	*^	*	*
4c\ 4A\	4a/	4e\	4a/	-czam.
8r	8r	8ryy	8r	.
*	*v	*v	*	*
==	==	==	==
*-	*-	*-	*-
!!!system-decoration: s1{(s2,s3)}
!!!RDF**kern: < = below
!!!ENC: Marta Lawrence
!!!END: 2021-11-10
